apps/22/gmail.svg

<?xml version="1.0" encoding="UTF-8" standalone="no"?>
<!-- Created with Inkscape (http://www.inkscape.org/) -->

<svg
   xmlns:dc="http://purl.org/dc/elements/1.1/"
   xmlns:cc="http://creativecommons.org/ns#"
   xmlns:rdf="http://www.w3.org/1999/02/22-rdf-syntax-ns#"
   xmlns:svg="http://www.w3.org/2000/svg"
   xmlns="http://www.w3.org/2000/svg"
   xmlns:xlink="http://www.w3.org/1999/xlink"
   xmlns:inkscape="http://www.inkscape.org/namespaces/inkscape"
   version="1.0"
   width="22"
   height="22"
   id="svg2818">
  <metadata
     id="metadata63">
    <rdf:RDF>
      <cc:Work
         rdf:about="">
        <dc:format>image/svg+xml</dc:format>
        <dc:type
           rdf:resource="http://purl.org/dc/dcmitype/StillImage" />
      </cc:Work>
    </rdf:RDF>
  </metadata>
  <defs
     id="defs2820">
    <radialGradient
       cx="605.71429"
       cy="486.64789"
       r="117.14286"
       fx="605.71429"
       fy="486.64789"
       id="radialGradient2724"
       xlink:href="#linearGradient5060-6"
       gradientUnits="userSpaceOnUse"
       gradientTransform="matrix(-0.06553443,0,0,0.02470588,-21.829255,10.577352)" />
    <linearGradient
       id="linearGradient5060-6">
      <stop
         id="stop5062-3"
         style="stop-color:#000000;stop-opacity:1"
         offset="0" />
      <stop
         id="stop5064-1"
         style="stop-color:#000000;stop-opacity:0"
         offset="1" />
    </linearGradient>
    <radialGradient
       cx="605.71429"
       cy="486.64789"
       r="117.14286"
       fx="605.71429"
       fy="486.64789"
       id="radialGradient2722"
       xlink:href="#linearGradient5060-6"
       gradientUnits="userSpaceOnUse"
       gradientTransform="matrix(0.06553443,0,0,0.02470588,-69.175497,10.577352)" />
    <linearGradient
       id="linearGradient5048-7">
      <stop
         id="stop5050-5"
         style="stop-color:#000000;stop-opacity:0"
         offset="0" />
      <stop
         id="stop5056-9"
         style="stop-color:#000000;stop-opacity:1"
         offset="0.5" />
      <stop
         id="stop5052-6"
         style="stop-color:#000000;stop-opacity:0"
         offset="1" />
    </linearGradient>
    <linearGradient
       x1="302.85715"
       y1="366.64789"
       x2="302.85715"
       y2="609.50507"
       id="linearGradient2720"
       xlink:href="#linearGradient5048-7"
       gradientUnits="userSpaceOnUse"
       gradientTransform="matrix(0.06553443,0,0,0.02470588,-69.188394,10.577352)" />
    <linearGradient
       x1="28.103424"
       y1="45.000065"
       x2="28.103424"
       y2="14.038458"
       id="linearGradient2816"
       xlink:href="#linearGradient2490"
       gradientUnits="userSpaceOnUse"
       gradientTransform="matrix(0.4666666,0,0,0.5006418,0.7999998,-2.7785529)" />
    <linearGradient
       id="linearGradient3242">
      <stop
         id="stop3244"
         style="stop-color:#f89b7e;stop-opacity:1"
         offset="0" />
      <stop
         id="stop3246"
         style="stop-color:#e35d4f;stop-opacity:1"
         offset="0.11961333" />
      <stop
         id="stop3248"
         style="stop-color:#c6262e;stop-opacity:1"
         offset="0.81107038" />
      <stop
         id="stop3250"
         style="stop-color:#690b2c;stop-opacity:1"
         offset="1" />
    </linearGradient>
    <linearGradient
       x1="20.052792"
       y1="8.163353"
       x2="20.052792"
       y2="48.072277"
       id="linearGradient2814"
       xlink:href="#linearGradient3242"
       gradientUnits="userSpaceOnUse"
       gradientTransform="matrix(0.4666666,0,0,0.4545454,0.7999999,-0.7272752)" />
    <linearGradient
       x1="34.842384"
       y1="44.907166"
       x2="34.842384"
       y2="13.842206"
       id="linearGradient2811"
       xlink:href="#linearGradient2490"
       gradientUnits="userSpaceOnUse"
       gradientTransform="matrix(0.4545682,0,0,0.4823881,1.0904262,-1.5011172)" />
    <linearGradient
       id="linearGradient3485">
      <stop
         id="stop3487"
         style="stop-color:#ffffff;stop-opacity:1"
         offset="0" />
      <stop
         id="stop2430"
         style="stop-color:#dddddd;stop-opacity:1"
         offset="0.87898636" />
      <stop
         id="stop3489"
         style="stop-color:#bcbcbc;stop-opacity:1"
         offset="1" />
    </linearGradient>
    <linearGradient
       x1="24"
       y1="20.721279"
       x2="24"
       y2="42.76247"
       id="linearGradient2809"
       xlink:href="#linearGradient3485"
       gradientUnits="userSpaceOnUse"
       gradientTransform="matrix(0.4545682,0,0,0.4823881,1.0904262,-1.5011172)" />
    <linearGradient
       id="linearGradient3333">
      <stop
         id="stop3335"
         style="stop-color:#ffffff;stop-opacity:1"
         offset="0" />
      <stop
         id="stop3337"
         style="stop-color:#ffffff;stop-opacity:0"
         offset="1" />
    </linearGradient>
    <linearGradient
       x1="25.57654"
       y1="15.000002"
       x2="25.57654"
       y2="44.00053"
       id="linearGradient2806"
       xlink:href="#linearGradient3333"
       gradientUnits="userSpaceOnUse"
       gradientTransform="matrix(0.4418603,0,0,0.4642857,1.3953491,-1.696433)" />
    <linearGradient
       id="linearGradient2490">
      <stop
         id="stop2492"
         style="stop-color:#791235;stop-opacity:1"
         offset="0" />
      <stop
         id="stop2494"
         style="stop-color:#dd3b27;stop-opacity:1"
         offset="1" />
    </linearGradient>
    <linearGradient
       x1="24.061939"
       y1="44.571079"
       x2="24.061939"
       y2="13.646055"
       id="linearGradient2803"
       xlink:href="#linearGradient2490"
       gradientUnits="userSpaceOnUse"
       gradientTransform="matrix(0.4657385,0,0,0.4850945,0.8223378,-2.102232)" />
    <linearGradient
       id="linearGradient8265-821-176-38-919-66-249-7-7">
      <stop
         id="stop2687-1-9"
         style="stop-color:#ffffff;stop-opacity:1"
         offset="0" />
      <stop
         id="stop2689-5-4"
         style="stop-color:#ffffff;stop-opacity:0"
         offset="1" />
    </linearGradient>
    <linearGradient
       x1="16.626165"
       y1="15.298182"
       x2="20.054544"
       y2="24.627615"
       id="linearGradient2800"
       xlink:href="#linearGradient8265-821-176-38-919-66-249-7-7"
       gradientUnits="userSpaceOnUse"
       gradientTransform="matrix(0.4342001,0,0,0.4337445,1.5588839,2.5223588)" />
    <filter
       color-interpolation-filters="sRGB"
       id="filter3507">
      <feGaussianBlur
         id="feGaussianBlur3509"
         stdDeviation="0.45938818" />
    </filter>
    <linearGradient
       id="linearGradient3495">
      <stop
         id="stop3497"
         style="stop-color:#000000;stop-opacity:1"
         offset="0" />
      <stop
         id="stop3499"
         style="stop-color:#000000;stop-opacity:0"
         offset="1" />
    </linearGradient>
    <linearGradient
       x1="23.903786"
       y1="35.75"
       x2="23.903786"
       y2="20.443331"
       id="linearGradient2796"
       xlink:href="#linearGradient3495"
       gradientUnits="userSpaceOnUse"
       gradientTransform="translate(0,1.1)" />
    <linearGradient
       x1="20.052792"
       y1="8.163353"
       x2="20.052792"
       y2="48.072277"
       id="linearGradient2986"
       xlink:href="#linearGradient3242"
       gradientUnits="userSpaceOnUse"
       gradientTransform="matrix(0.4666666,0,0,0.4545454,0.7999999,-0.7272752)" />
    <linearGradient
       x1="28.103424"
       y1="45.000065"
       x2="28.103424"
       y2="14.038458"
       id="linearGradient2988"
       xlink:href="#linearGradient2490"
       gradientUnits="userSpaceOnUse"
       gradientTransform="matrix(0.4666666,0,0,0.5006418,0.7999998,-2.7785529)" />
    <linearGradient
       x1="24"
       y1="20.721279"
       x2="24"
       y2="42.76247"
       id="linearGradient2990"
       xlink:href="#linearGradient3485"
       gradientUnits="userSpaceOnUse"
       gradientTransform="matrix(0.4545682,0,0,0.4823881,1.0904262,-1.5011172)" />
    <linearGradient
       x1="34.842384"
       y1="44.907166"
       x2="34.842384"
       y2="13.842206"
       id="linearGradient2992"
       xlink:href="#linearGradient2490"
       gradientUnits="userSpaceOnUse"
       gradientTransform="matrix(0.4545682,0,0,0.4823881,1.0904262,-1.5011172)" />
    <linearGradient
       x1="25.57654"
       y1="15.000002"
       x2="25.57654"
       y2="44.00053"
       id="linearGradient2994"
       xlink:href="#linearGradient3333"
       gradientUnits="userSpaceOnUse"
       gradientTransform="matrix(0.4418603,0,0,0.4642857,1.3953491,-1.696433)" />
    <linearGradient
       x1="24.061939"
       y1="44.571079"
       x2="24.061939"
       y2="13.646055"
       id="linearGradient2996"
       xlink:href="#linearGradient2490"
       gradientUnits="userSpaceOnUse"
       gradientTransform="matrix(0.4657385,0,0,0.4850945,0.8223378,-2.102232)" />
    <linearGradient
       x1="16.626165"
       y1="15.298182"
       x2="20.054544"
       y2="24.627615"
       id="linearGradient2998"
       xlink:href="#linearGradient8265-821-176-38-919-66-249-7-7"
       gradientUnits="userSpaceOnUse"
       gradientTransform="matrix(0.4342001,0,0,0.4337445,1.5588839,2.5223588)" />
    <linearGradient
       x1="23.903786"
       y1="35.75"
       x2="23.903786"
       y2="20.443331"
       id="linearGradient3000"
       xlink:href="#linearGradient3495"
       gradientUnits="userSpaceOnUse"
       gradientTransform="translate(0,1.1)" />
  </defs>
  <g
     id="layer1">
    <g
       transform="translate(-1,-1.0000005)"
       id="g2978">
      <rect
         width="21"
         height="15"
         rx="0.46666664"
         ry="0.45454553"
         x="1.5"
         y="4.5"
         id="rect2396"
         style="fill:url(#linearGradient2986);fill-opacity:1;fill-rule:evenodd;stroke:url(#linearGradient2988);stroke-width:1;stroke-linecap:square;stroke-linejoin:round;stroke-miterlimit:4;stroke-opacity:1;stroke-dasharray:none;stroke-dashoffset:0;marker:none;visibility:visible;display:inline;overflow:visible;enable-background:accumulate" />
      <path
         d="m 6.5452436,5.5000002 10.9096374,0 -5.454819,5.4193548 -5.4548184,-5.4193548 z m -2.0452435,2.2580638 0,11.741937 14.9999999,0 0,-11.741937 -7.499938,6.774195 -7.5000619,-6.774195 z"
         inkscape:connector-curvature="0"
         id="path3307"
         style="fill:url(#linearGradient2990);fill-opacity:1;fill-rule:evenodd;stroke:url(#linearGradient2992);stroke-width:1;stroke-linecap:butt;stroke-linejoin:miter;stroke-miterlimit:4;stroke-opacity:1;stroke-dasharray:none" />
      <rect
         width="19"
         height="13"
         rx="0.036476243"
         ry="0.035004593"
         x="2.5"
         y="5.5"
         id="rect3331"
         style="opacity:0.4;fill:none;stroke:url(#linearGradient2994);stroke-width:0.99999994;stroke-linecap:square;stroke-linejoin:miter;stroke-miterlimit:4;stroke-opacity:1;stroke-dasharray:none;stroke-dashoffset:0;marker:none;visibility:visible;display:inline;overflow:visible;enable-background:accumulate" />
      <path
         d="m 9.5036116,13.130078 -5.064167,4.890275 m 10.0631674,-4.860217 5.115761,4.860217"
         inkscape:connector-curvature="0"
         id="path3341"
         style="fill:none;stroke:url(#linearGradient2996);stroke-width:1;stroke-linecap:butt;stroke-linejoin:miter;stroke-miterlimit:4;stroke-opacity:1;stroke-dasharray:none;stroke-dashoffset:0;marker:none;visibility:visible;display:inline;overflow:visible;enable-background:accumulate" />
      <path
         d="M 2.6404826,5 C 2.2830138,5 2,5.3041556 2,5.6 l 0.00665,7.4 C 2.5820041,12.991942 21.563293,10.05103 22,9.9095698 L 22,5.6 C 22,5.3738648 21.720433,5 21.410907,5 L 2.6404826,5 z"
         inkscape:connector-curvature="0"
         id="path3333"
         style="opacity:0.2;fill:url(#linearGradient2998);fill-opacity:1;fill-rule:evenodd;stroke:none" />
      <path
         d="M 8.3351296,22.511926 24,35.630271 39.472443,22.511926"
         inkscape:connector-curvature="0"
         transform="matrix(0.4657385,0,0,0.4850945,0.8223379,-2.1022319)"
         id="path3493"
         style="opacity:0.4;fill:none;stroke:url(#linearGradient3000);stroke-width:2.10385489;stroke-linecap:butt;stroke-linejoin:miter;stroke-miterlimit:4;stroke-opacity:1;stroke-dasharray:none;filter:url(#filter3507)" />
    </g>
  </g>
</svg>

<?xml version="1.0" encoding="UTF-8" standalone="no"?>
<!-- Created with Inkscape (http://www.inkscape.org/) -->
<svg
   xmlns:svg="http://www.w3.org/2000/svg"
   xmlns="http://www.w3.org/2000/svg"
   xmlns:xlink="http://www.w3.org/1999/xlink"
   xmlns:inkscape="http://www.inkscape.org/namespaces/inkscape"
   version="1.0"
   width="22"
   height="22"
   id="svg2818">
  <defs
     id="defs2820">
    <radialGradient
       cx="605.71429"
       cy="486.64789"
       r="117.14286"
       fx="605.71429"
       fy="486.64789"
       id="radialGradient2724"
       xlink:href="#linearGradient5060-6"
       gradientUnits="userSpaceOnUse"
       gradientTransform="matrix(-6.553443e-2,0,0,2.470588e-2,-21.829255,10.577352)" />
    <linearGradient
       id="linearGradient5060-6">
      <stop
         id="stop5062-3"
         style="stop-color:#000000;stop-opacity:1"
         offset="0" />
      <stop
         id="stop5064-1"
         style="stop-color:#000000;stop-opacity:0"
         offset="1" />
    </linearGradient>
    <radialGradient
       cx="605.71429"
       cy="486.64789"
       r="117.14286"
       fx="605.71429"
       fy="486.64789"
       id="radialGradient2722"
       xlink:href="#linearGradient5060-6"
       gradientUnits="userSpaceOnUse"
       gradientTransform="matrix(6.553443e-2,0,0,2.470588e-2,-69.175497,10.577352)" />
    <linearGradient
       id="linearGradient5048-7">
      <stop
         id="stop5050-5"
         style="stop-color:#000000;stop-opacity:0"
         offset="0" />
      <stop
         id="stop5056-9"
         style="stop-color:#000000;stop-opacity:1"
         offset="0.5" />
      <stop
         id="stop5052-6"
         style="stop-color:#000000;stop-opacity:0"
         offset="1" />
    </linearGradient>
    <linearGradient
       x1="302.85715"
       y1="366.64789"
       x2="302.85715"
       y2="609.50507"
       id="linearGradient2720"
       xlink:href="#linearGradient5048-7"
       gradientUnits="userSpaceOnUse"
       gradientTransform="matrix(6.553443e-2,0,0,2.470588e-2,-69.188394,10.577352)" />
    <linearGradient
       x1="28.103424"
       y1="45.000065"
       x2="28.103424"
       y2="14.038458"
       id="linearGradient2816"
       xlink:href="#linearGradient2490"
       gradientUnits="userSpaceOnUse"
       gradientTransform="matrix(0.4666666,0,0,0.5006418,0.7999998,-2.7785529)" />
    <linearGradient
       id="linearGradient3242">
      <stop
         id="stop3244"
         style="stop-color:#f89b7e;stop-opacity:1"
         offset="0" />
      <stop
         id="stop3246"
         style="stop-color:#e35d4f;stop-opacity:1"
         offset="0.11961333" />
      <stop
         id="stop3248"
         style="stop-color:#c6262e;stop-opacity:1"
         offset="0.81107038" />
      <stop
         id="stop3250"
         style="stop-color:#690b2c;stop-opacity:1"
         offset="1" />
    </linearGradient>
    <linearGradient
       x1="20.052792"
       y1="8.163353"
       x2="20.052792"
       y2="48.072277"
       id="linearGradient2814"
       xlink:href="#linearGradient3242"
       gradientUnits="userSpaceOnUse"
       gradientTransform="matrix(0.4666666,0,0,0.4545454,0.7999999,-0.7272752)" />
    <linearGradient
       x1="34.842384"
       y1="44.907166"
       x2="34.842384"
       y2="13.842206"
       id="linearGradient2811"
       xlink:href="#linearGradient2490"
       gradientUnits="userSpaceOnUse"
       gradientTransform="matrix(0.4545682,0,0,0.4823881,1.0904262,-1.5011172)" />
    <linearGradient
       id="linearGradient3485">
      <stop
         id="stop3487"
         style="stop-color:#ffffff;stop-opacity:1"
         offset="0" />
      <stop
         id="stop2430"
         style="stop-color:#dddddd;stop-opacity:1"
         offset="0.87898636" />
      <stop
         id="stop3489"
         style="stop-color:#bcbcbc;stop-opacity:1"
         offset="1" />
    </linearGradient>
    <linearGradient
       x1="24"
       y1="20.721279"
       x2="24"
       y2="42.76247"
       id="linearGradient2809"
       xlink:href="#linearGradient3485"
       gradientUnits="userSpaceOnUse"
       gradientTransform="matrix(0.4545682,0,0,0.4823881,1.0904262,-1.5011172)" />
    <linearGradient
       id="linearGradient3333">
      <stop
         id="stop3335"
         style="stop-color:#ffffff;stop-opacity:1"
         offset="0" />
      <stop
         id="stop3337"
         style="stop-color:#ffffff;stop-opacity:0"
         offset="1" />
    </linearGradient>
    <linearGradient
       x1="25.57654"
       y1="15.000002"
       x2="25.57654"
       y2="44.00053"
       id="linearGradient2806"
       xlink:href="#linearGradient3333"
       gradientUnits="userSpaceOnUse"
       gradientTransform="matrix(0.4418603,0,0,0.4642857,1.3953491,-1.696433)" />
    <linearGradient
       id="linearGradient2490">
      <stop
         id="stop2492"
         style="stop-color:#791235;stop-opacity:1"
         offset="0" />
      <stop
         id="stop2494"
         style="stop-color:#dd3b27;stop-opacity:1"
         offset="1" />
    </linearGradient>
    <linearGradient
       x1="24.061939"
       y1="44.571079"
       x2="24.061939"
       y2="13.646055"
       id="linearGradient2803"
       xlink:href="#linearGradient2490"
       gradientUnits="userSpaceOnUse"
       gradientTransform="matrix(0.4657385,0,0,0.4850945,0.8223378,-2.102232)" />
    <linearGradient
       id="linearGradient8265-821-176-38-919-66-249-7-7">
      <stop
         id="stop2687-1-9"
         style="stop-color:#ffffff;stop-opacity:1"
         offset="0" />
      <stop
         id="stop2689-5-4"
         style="stop-color:#ffffff;stop-opacity:0"
         offset="1" />
    </linearGradient>
    <linearGradient
       x1="16.626165"
       y1="15.298182"
       x2="20.054544"
       y2="24.627615"
       id="linearGradient2800"
       xlink:href="#linearGradient8265-821-176-38-919-66-249-7-7"
       gradientUnits="userSpaceOnUse"
       gradientTransform="matrix(0.4342001,0,0,0.4337445,1.5588839,2.5223588)" />
    <filter
       id="filter3507">
      <feGaussianBlur
         inkscape:collect="always"
         stdDeviation="0.45938818"
         id="feGaussianBlur3509" />
    </filter>
    <linearGradient
       id="linearGradient3495">
      <stop
         id="stop3497"
         style="stop-color:#000000;stop-opacity:1"
         offset="0" />
      <stop
         id="stop3499"
         style="stop-color:#000000;stop-opacity:0"
         offset="1" />
    </linearGradient>
    <linearGradient
       x1="23.903786"
       y1="35.75"
       x2="23.903786"
       y2="20.443331"
       id="linearGradient2796"
       xlink:href="#linearGradient3495"
       gradientUnits="userSpaceOnUse"
       gradientTransform="translate(0,1.1)" />
    <linearGradient
       x1="20.052792"
       y1="8.163353"
       x2="20.052792"
       y2="48.072277"
       id="linearGradient2986"
       xlink:href="#linearGradient3242"
       gradientUnits="userSpaceOnUse"
       gradientTransform="matrix(0.4666666,0,0,0.4545454,0.7999999,-0.7272752)" />
    <linearGradient
       x1="28.103424"
       y1="45.000065"
       x2="28.103424"
       y2="14.038458"
       id="linearGradient2988"
       xlink:href="#linearGradient2490"
       gradientUnits="userSpaceOnUse"
       gradientTransform="matrix(0.4666666,0,0,0.5006418,0.7999998,-2.7785529)" />
    <linearGradient
       x1="24"
       y1="20.721279"
       x2="24"
       y2="42.76247"
       id="linearGradient2990"
       xlink:href="#linearGradient3485"
       gradientUnits="userSpaceOnUse"
       gradientTransform="matrix(0.4545682,0,0,0.4823881,1.0904262,-1.5011172)" />
    <linearGradient
       x1="34.842384"
       y1="44.907166"
       x2="34.842384"
       y2="13.842206"
       id="linearGradient2992"
       xlink:href="#linearGradient2490"
       gradientUnits="userSpaceOnUse"
       gradientTransform="matrix(0.4545682,0,0,0.4823881,1.0904262,-1.5011172)" />
    <linearGradient
       x1="25.57654"
       y1="15.000002"
       x2="25.57654"
       y2="44.00053"
       id="linearGradient2994"
       xlink:href="#linearGradient3333"
       gradientUnits="userSpaceOnUse"
       gradientTransform="matrix(0.4418603,0,0,0.4642857,1.3953491,-1.696433)" />
    <linearGradient
       x1="24.061939"
       y1="44.571079"
       x2="24.061939"
       y2="13.646055"
       id="linearGradient2996"
       xlink:href="#linearGradient2490"
       gradientUnits="userSpaceOnUse"
       gradientTransform="matrix(0.4657385,0,0,0.4850945,0.8223378,-2.102232)" />
    <linearGradient
       x1="16.626165"
       y1="15.298182"
       x2="20.054544"
       y2="24.627615"
       id="linearGradient2998"
       xlink:href="#linearGradient8265-821-176-38-919-66-249-7-7"
       gradientUnits="userSpaceOnUse"
       gradientTransform="matrix(0.4342001,0,0,0.4337445,1.5588839,2.5223588)" />
    <linearGradient
       x1="23.903786"
       y1="35.75"
       x2="23.903786"
       y2="20.443331"
       id="linearGradient3000"
       xlink:href="#linearGradient3495"
       gradientUnits="userSpaceOnUse"
       gradientTransform="translate(0,1.1)" />
  </defs>
  <g
     id="layer1">
    <g
       transform="translate(-1,-1.0000005)"
       id="g2978">
      <rect
         width="21"
         height="15"
         rx="0.46666664"
         ry="0.45454553"
         x="1.5"
         y="4.5"
         id="rect2396"
         style="fill:url(#linearGradient2986);fill-opacity:1;fill-rule:evenodd;stroke:url(#linearGradient2988);stroke-width:1;stroke-linecap:square;stroke-linejoin:round;marker:none;marker-start:none;marker-mid:none;marker-end:none;stroke-miterlimit:4;stroke-dasharray:none;stroke-dashoffset:0;stroke-opacity:1;visibility:visible;display:inline;overflow:visible;enable-background:accumulate" />
      <path
         d="M 6.5452436,5.5000002 L 17.454881,5.5000002 L 12.000062,10.919355 L 6.5452436,5.5000002 z M 4.5000001,7.758064 L 4.5000001,19.500001 L 19.5,19.500001 L 19.5,7.758064 L 12.000062,14.532259 L 4.5000001,7.758064 z"
         id="path3307"
         style="fill:url(#linearGradient2990);fill-opacity:1;fill-rule:evenodd;stroke:url(#linearGradient2992);stroke-width:1;stroke-linecap:butt;stroke-linejoin:miter;stroke-miterlimit:4;stroke-dasharray:none;stroke-opacity:1" />
      <rect
         width="19"
         height="13"
         rx="0.036476243"
         ry="0.035004593"
         x="2.5"
         y="5.5"
         id="rect3331"
         style="opacity:0.4;fill:none;fill-opacity:1;fill-rule:evenodd;stroke:url(#linearGradient2994);stroke-width:0.99999994;stroke-linecap:square;stroke-linejoin:miter;marker:none;marker-start:none;marker-mid:none;marker-end:none;stroke-miterlimit:4;stroke-dasharray:none;stroke-dashoffset:0;stroke-opacity:1;visibility:visible;display:inline;overflow:visible;enable-background:accumulate" />
      <path
         d="M 9.5036116,13.130078 L 4.4394446,18.020353 M 14.502612,13.160136 L 19.618373,18.020353"
         id="path3341"
         style="fill:none;fill-opacity:1;fill-rule:evenodd;stroke:url(#linearGradient2996);stroke-width:1;stroke-linecap:butt;stroke-linejoin:miter;marker:none;marker-start:none;marker-mid:none;marker-end:none;stroke-miterlimit:4;stroke-dasharray:none;stroke-dashoffset:0;stroke-opacity:1;visibility:visible;display:inline;overflow:visible;enable-background:accumulate" />
      <path
         d="M 2.6404826,5 C 2.2830138,5 2,5.3041556 2,5.6 L 2.0066528,13 C 2.5820041,12.991942 21.563293,10.05103 22,9.9095698 L 22,5.6 C 22,5.3738648 21.720433,5 21.410907,5 L 2.6404826,5 z"
         id="path3333"
         style="opacity:0.2;fill:url(#linearGradient2998);fill-opacity:1;fill-rule:evenodd;stroke:none;stroke-width:1;stroke-miterlimit:4;stroke-dasharray:none" />
      <path
         d="M 8.3351296,22.511926 L 24,35.630271 L 39.472443,22.511926"
         transform="matrix(0.4657385,0,0,0.4850945,0.8223379,-2.1022319)"
         id="path3493"
         style="opacity:0.4;fill:none;fill-rule:evenodd;stroke:url(#linearGradient3000);stroke-width:2.10385489;stroke-linecap:butt;stroke-linejoin:miter;stroke-miterlimit:4;stroke-dasharray:none;stroke-opacity:1;filter:url(#filter3507)" />
    </g>
  </g>
</svg>
